lib/brands/icons/apache.svg

<svg xmlns="http://www.w3.org/2000/svg" fill="none" aria-hidden="true" viewBox="0 0 48 48"><g id="apache-Icon"><g id="Group"><path id="Vector" fill="url(#paint0_linear_94_17073)" d="M31.0452 4.18875C30.4211 4.55542 29.3757 5.60863 28.1274 7.12993V7.22355L29.2197 9.24414L29.2743 9.28315C30.0778 8.13633 30.8892 7.09872 31.7161 6.21715C31.7786 6.14693 31.8098 6.11573 31.8098 6.11573C31.7786 6.14693 31.7474 6.18594 31.7161 6.21715C31.4509 6.51361 30.6395 7.44979 29.4225 9.32216L29.5629 9.35337C29.5629 9.35337 32.4105 9.07251 33.7836 8.83846L33.8616 8.76825C34.2985 6.31857 33.4325 5.19515 33.4325 5.19515C33.4325 5.19515 32.3403 3.432 31.0452 4.18875Z"/><path id="Vector_2" fill="url(#paint1_linear_94_17073)" d="M25.9043 14.8613C26.2553 14.2137 26.6064 13.574 26.9575 12.9577C27.3241 12.318 27.6986 11.6938 28.0809 11.0931C28.1043 11.0619 28.1277 11.0229 28.1433 10.9839C28.5178 10.391 28.8923 9.82927 29.2745 9.28316L28.1277 7.12213C28.0419 7.22355 27.9561 7.33277 27.8703 7.44199C27.5426 7.85548 27.1993 8.29236 26.8482 8.76045C26.4504 9.29096 26.0447 9.85267 25.6312 10.4456C25.2489 10.9917 24.8589 11.569 24.4766 12.1541C24.1489 12.6612 23.8134 13.1761 23.4858 13.7144C23.4702 13.7378 23.4624 13.7534 23.4468 13.7768V13.8627L24.8745 16.6946L24.9369 16.718C25.2567 16.0939 25.5766 15.4698 25.9043 14.8613Z"/><path id="Vector_3" fill="url(#paint2_linear_94_17073)" d="M19.6863 28.7246C19.9437 28.0537 20.2168 27.3749 20.4898 26.6884C20.7551 26.0331 21.0203 25.3699 21.3012 24.7068C21.5742 24.0437 21.8629 23.3805 22.1515 22.7096C22.448 22.0309 22.7445 21.3521 23.0487 20.6812C23.353 20.0181 23.6572 19.355 23.9693 18.6996C24.0785 18.4656 24.1955 18.2237 24.3126 17.9897C24.5076 17.584 24.7104 17.1783 24.9055 16.7804C24.9133 16.757 24.9289 16.7414 24.9367 16.718L23.4466 13.7769C23.4232 13.8159 23.3998 13.8549 23.3764 13.8939C23.0331 14.4634 22.682 15.0407 22.3466 15.6336C22.0033 16.2343 21.6678 16.8429 21.3402 17.4592C21.0593 17.9819 20.7941 18.5046 20.5288 19.0351C20.4742 19.1443 20.4274 19.2457 20.3728 19.355C20.0451 20.0259 19.7565 20.6656 19.4912 21.2897C19.1948 21.9919 18.9295 22.6628 18.6955 23.3025C18.5394 23.7238 18.4068 24.1217 18.2742 24.5118C18.1728 24.8394 18.0713 25.1749 17.9777 25.5026C17.7515 26.2827 17.5642 27.0551 17.4082 27.8352L17.4316 27.9288L18.8593 30.7686L18.9061 30.792C19.1011 30.2615 19.304 29.731 19.5146 29.1849C19.5692 29.0289 19.6316 28.8806 19.6863 28.7246Z"/><path id="Vector_4" fill="url(#paint3_linear_94_17073)" d="M17.3927 27.9366C17.2055 28.8806 17.0729 29.8246 17.0026 30.7608C17.0026 30.792 16.9948 30.8232 16.9948 30.8622C16.5267 30.1133 15.2785 29.3877 15.2785 29.3877C16.1757 30.6828 16.8544 31.97 16.9558 33.2339C16.4799 33.3353 15.8246 33.1871 15.0601 32.914C15.848 33.6396 16.4409 33.8424 16.675 33.897C15.9494 33.9438 15.1927 34.4431 14.4281 35.0126C15.5437 34.5601 16.4409 34.3807 17.0885 34.5211C16.0665 37.4155 15.0445 40.6141 14.0146 44C14.3267 43.9064 14.5139 43.6957 14.6232 43.4071C14.8026 42.7908 16.0196 38.7652 17.9154 33.4679C17.97 33.3197 18.0246 33.1637 18.0793 33.0154C18.0949 32.9764 18.1105 32.9296 18.1261 32.8906C18.3289 32.3367 18.5317 31.7672 18.7502 31.1899C18.797 31.0572 18.8516 30.9246 18.8984 30.792V30.7842L17.4083 27.8352C17.4083 27.8742 17.4005 27.9054 17.3927 27.9366Z"/><path id="Vector_5" fill="url(#paint4_linear_94_17073)" d="M29.4228 9.32997C29.0873 9.84487 28.7206 10.43 28.3227 11.0931C28.2993 11.1243 28.2837 11.1633 28.2603 11.1945C27.9171 11.7719 27.5582 12.396 27.1759 13.0903C26.8483 13.6832 26.505 14.323 26.1461 15.0173C25.8341 15.618 25.5142 16.2499 25.1865 16.9287L25.2567 16.9599L28.8845 16.5698L28.9703 16.5074C30.0703 16.0003 30.5618 15.54 31.0377 14.8769C31.1625 14.6974 31.2951 14.5024 31.42 14.3074C31.81 13.6988 32.1923 13.0357 32.5278 12.3726C32.8554 11.7328 33.1441 11.0931 33.3703 10.5236C33.5108 10.1569 33.6278 9.82147 33.7058 9.52501C33.776 9.25976 33.8306 9.01011 33.8696 8.77606C32.4029 9.03351 30.6008 9.27536 29.4228 9.32997Z"/><path id="Vector_6" fill="url(#paint5_linear_94_17073)" d="M25.046 17.2329C24.9212 17.4982 24.7886 17.7712 24.6559 18.0443C24.5155 18.3408 24.3673 18.6528 24.2269 18.9649C24.1566 19.1209 24.0786 19.2847 24.0084 19.4408C23.7822 19.9245 23.5637 20.4238 23.3297 20.9387C23.0488 21.5706 22.7602 22.2337 22.4715 22.9125C22.1907 23.5678 21.9098 24.2387 21.6289 24.9409C21.3559 25.604 21.0828 26.2905 20.8098 26.9927C20.5601 27.6246 20.3105 28.2643 20.0608 28.9352C20.0452 28.9665 20.0374 28.9977 20.0218 29.0289C19.7722 29.692 19.5287 30.3666 19.2712 31.0609C19.2634 31.0765 19.2495 31.1171 19.2417 31.1327L19.2956 31.1447L20.3807 31.028L20.442 31.0027C20.4186 30.9949 20.4041 30.9636 20.3807 30.9558C21.8162 30.7764 23.7276 29.6998 24.968 28.3735C25.5375 27.765 26.0524 27.0395 26.5361 26.1969C26.895 25.565 27.2227 24.8706 27.5425 24.0983C27.8234 23.4274 28.0886 22.694 28.3461 21.9061C28.0184 22.0777 27.6361 22.2103 27.2227 22.2961C27.1524 22.3117 27.0744 22.3273 26.9964 22.3429C26.9184 22.3586 26.8404 22.3664 26.7702 22.382C28.112 21.8671 28.9546 20.8685 29.5709 19.6514C29.2198 19.8933 28.6425 20.2053 27.956 20.3614C27.8624 20.3848 27.7688 20.4004 27.6673 20.416C27.6439 20.416 27.6205 20.4238 27.5971 20.4238C28.0652 20.2287 28.4553 20.0103 28.7986 19.7528C28.8688 19.6982 28.939 19.6436 29.0092 19.5812C29.1106 19.4876 29.212 19.394 29.3057 19.3003C29.3681 19.2379 29.4227 19.1755 29.4851 19.1053C29.6177 18.9493 29.7425 18.7776 29.8596 18.5904C29.8986 18.5358 29.9298 18.4734 29.9688 18.4188C30.0156 18.333 30.0546 18.2471 30.0936 18.1613C30.2809 17.7868 30.4291 17.4514 30.5461 17.1549C30.6085 17.0067 30.6553 16.8741 30.7021 16.7414C30.7177 16.6946 30.7333 16.64 30.7567 16.5932C30.8036 16.4528 30.8426 16.328 30.8738 16.2109C30.9206 16.0471 30.944 15.9145 30.9596 15.8209C30.9128 15.8599 30.866 15.8911 30.8036 15.9301C30.3979 16.1719 29.7035 16.3904 29.1418 16.4918L30.2496 16.367L29.1418 16.4918C29.0638 16.5074 29.0092 16.5152 28.9468 16.5308C28.952 16.5256 27.7008 16.6579 25.1932 16.9277C25.1776 16.9433 25.085 17.1393 25.046 17.2329Z"/><path id="Vector_7" fill="url(#paint6_linear_94_17073)" d="M19.1248 31.4239C18.9297 31.9622 18.7269 32.5161 18.5319 33.0778C18.5319 33.0856 18.5241 33.0934 18.5241 33.1012C18.4929 33.1792 18.4694 33.2573 18.4382 33.3431C18.3056 33.7253 18.1886 34.0608 17.9233 34.841C18.3602 35.0438 18.7113 35.5665 19.0468 36.1672C19.0156 35.5509 18.7581 34.9658 18.2666 34.5211C20.4276 34.6147 22.2922 34.0686 23.2518 32.4927C23.3376 32.3523 23.4156 32.204 23.4858 32.048C23.049 32.6019 22.5028 32.836 21.4886 32.7814H21.4808H21.4886C22.9943 32.1104 23.7433 31.4629 24.4142 30.3941C24.5703 30.1366 24.7263 29.8636 24.8823 29.5593C23.5639 30.909 22.0426 31.2913 20.4432 31.0026L19.2418 31.1352C19.2028 31.2211 19.1638 31.3225 19.1248 31.4239Z"/></g></g><defs><linearGradient id="paint0_linear_94_17073" x1="29.0859" x2="37.3603" y1="7.42108" y2="4.66703" gradientUnits="userSpaceOnUse"><stop stop-color="#F69923"/><stop offset="0.3123" stop-color="#F79A23"/><stop offset="0.8383" stop-color="#E97826"/></linearGradient><linearGradient id="paint1_linear_94_17073" x1="10.7626" x2="39.0253" y1="44.9944" y2="22.6388" gradientUnits="userSpaceOnUse"><stop offset="0.3233" stop-color="#9E2064"/><stop offset="0.6302" stop-color="#C92037"/><stop offset="0.7514" stop-color="#CD2335"/><stop offset="1" stop-color="#E97826"/></linearGradient><linearGradient id="paint2_linear_94_17073" x1="11.3821" x2="38.9052" y1="42.7738" y2="31.2185" gradientUnits="userSpaceOnUse"><stop offset="0.3233" stop-color="#9E2064"/><stop offset="0.6302" stop-color="#C92037"/><stop offset="0.7514" stop-color="#CD2335"/><stop offset="1" stop-color="#E97826"/></linearGradient><linearGradient id="paint3_linear_94_17073" x1="13.1201" x2="25.3623" y1="40.3403" y2="37.9439" gradientUnits="userSpaceOnUse"><stop stop-color="#282662"/><stop offset="0.0954839" stop-color="#662E8D"/><stop offset="0.7882" stop-color="#9F2064"/><stop offset="0.9487" stop-color="#CD2032"/></linearGradient><linearGradient id="paint4_linear_94_17073" x1="13.9173" x2="29.3324" y1="46.7256" y2="9.50993" gradientUnits="userSpaceOnUse"><stop offset="0.3233" stop-color="#9E2064"/><stop offset="0.6302" stop-color="#C92037"/><stop offset="0.7514" stop-color="#CD2335"/><stop offset="1" stop-color="#E97826"/></linearGradient><linearGradient id="paint5_linear_94_17073" x1="15.1545" x2="39.6074" y1="44.5846" y2="13.8903" gradientUnits="userSpaceOnUse"><stop offset="0.3233" stop-color="#9E2064"/><stop offset="0.6302" stop-color="#C92037"/><stop offset="0.7514" stop-color="#CD2335"/><stop offset="1" stop-color="#E97826"/></linearGradient><linearGradient id="paint6_linear_94_17073" x1="16.4885" x2="25.7917" y1="42.2838" y2="20.156" gradientUnits="userSpaceOnUse"><stop stop-color="#282662"/><stop offset="0.0954839" stop-color="#662E8D"/><stop offset="0.7882" stop-color="#9F2064"/><stop offset="0.9487" stop-color="#CD2032"/></linearGradient></defs></svg>

<svg xmlns="http://www.w3.org/2000/svg" fill="none" aria-hidden="true" viewBox="0 0 48 48"><path fill="url(#a)" d="M31.045 4.189c-.624.366-1.67 1.42-2.918 2.94v.095l1.093 2.02.054.04c.804-1.148 1.615-2.185 2.442-3.067.063-.07.094-.101.094-.101-.031.03-.063.07-.094.101-.265.297-1.076 1.233-2.294 3.105l.14.031s2.848-.28 4.222-.515l.078-.07c.436-2.45-.43-3.573-.43-3.573S32.34 3.432 31.045 4.19Z"/><path fill="url(#b)" d="M25.904 14.861c.351-.647.702-1.287 1.053-1.903a47.05 47.05 0 0 1 1.124-1.865.497.497 0 0 0 .062-.11 45.6 45.6 0 0 1 1.131-1.7l-1.146-2.16c-.086.1-.172.21-.258.319-.327.413-.67.85-1.022 1.318a64.901 64.901 0 0 0-2.372 3.394c-.327.507-.663 1.022-.99 1.56-.016.024-.024.04-.04.063v.086l1.428 2.832.063.023c.32-.624.64-1.248.967-1.857Z"/><path fill="url(#c)" d="M19.686 28.725c.258-.671.53-1.35.804-2.037.265-.655.53-1.318.811-1.981.273-.663.562-1.326.85-1.997.297-.68.593-1.358.898-2.029.304-.663.608-1.326.92-1.981.11-.234.226-.476.344-.71.195-.406.397-.812.593-1.21.007-.023.023-.039.03-.062l-1.49-2.941-.07.117c-.343.57-.694 1.147-1.03 1.74a68.073 68.073 0 0 0-1.817 3.401c-.055.11-.102.21-.156.32-.328.67-.617 1.31-.882 1.935a44.518 44.518 0 0 0-.796 2.012c-.156.422-.288.82-.42 1.21a41.31 41.31 0 0 0-.297.99c-.227.78-.414 1.553-.57 2.333l.024.094 1.427 2.84.047.023c.195-.53.398-1.061.609-1.607.054-.156.117-.304.171-.46Z"/><path fill="url(#d)" d="M17.393 27.937c-.188.944-.32 1.888-.39 2.824 0 .031-.008.062-.008.101-.468-.749-1.717-1.474-1.717-1.474.898 1.295 1.576 2.582 1.678 3.846-.476.101-1.131-.047-1.896-.32.788.726 1.38.928 1.615.983-.726.047-1.482.546-2.247 1.116 1.116-.453 2.013-.632 2.66-.492-1.021 2.895-2.044 6.093-3.073 9.479.312-.094.499-.304.608-.593.18-.616 1.397-4.642 3.292-9.94.055-.147.11-.303.164-.452.016-.039.031-.085.047-.124.203-.554.406-1.124.624-1.701.047-.133.102-.265.148-.398v-.008l-1.49-2.949c0 .04-.008.07-.015.102Z"/><path fill="url(#e)" d="M29.423 9.33c-.336.515-.702 1.1-1.1 1.763-.024.031-.04.07-.063.101a78.73 78.73 0 0 0-2.114 3.823 73.658 73.658 0 0 0-.96 1.912l.07.03 3.628-.39.086-.062c1.1-.507 1.592-.967 2.068-1.63.125-.18.257-.375.382-.57a22.29 22.29 0 0 0 1.108-1.934c.327-.64.616-1.28.842-1.85a8.22 8.22 0 0 0 .5-1.748c-1.467.259-3.27.5-4.447.555Z"/><path fill="url(#f)" d="M25.046 17.233a72.12 72.12 0 0 1-.39.811c-.14.297-.289.609-.43.92-.07.157-.147.32-.218.477-.226.483-.444.983-.678 1.498a133.686 133.686 0 0 0-1.701 4.002c-.273.663-.546 1.35-.82 2.052-.249.632-.498 1.271-.748 1.942-.016.032-.024.063-.04.094-.249.663-.492 1.338-.75 2.032-.008.015-.021.056-.03.072l.055.012 1.085-.117.061-.025c-.023-.008-.038-.04-.061-.047 1.435-.18 3.347-1.256 4.587-2.582.57-.609 1.084-1.334 1.568-2.177a18.81 18.81 0 0 0 1.006-2.099c.281-.67.547-1.404.804-2.192-.328.172-.71.304-1.123.39-.07.016-.149.031-.227.047-.078.016-.156.023-.226.039 1.342-.515 2.185-1.514 2.8-2.73a4.834 4.834 0 0 1-1.614.71 3.152 3.152 0 0 1-.289.054c-.023 0-.047.008-.07.008a5.485 5.485 0 0 0 1.202-.671c.07-.055.14-.11.21-.172.102-.093.203-.187.297-.28.062-.063.117-.125.18-.196.132-.156.256-.327.374-.515.039-.054.07-.117.109-.171.047-.086.086-.172.125-.258a12.58 12.58 0 0 0 .608-1.42c.016-.046.031-.101.055-.148a6.2 6.2 0 0 0 .117-.382c.047-.164.07-.296.086-.39a1.35 1.35 0 0 1-.156.11c-.406.24-1.1.46-1.662.56l1.108-.124-1.108.125c-.078.015-.133.023-.195.039.005-.005-1.246.127-3.754.397a2.896 2.896 0 0 0-.147.305Z"/><path fill="url(#g)" d="M19.125 31.424c-.195.538-.398 1.092-.593 1.654 0 .008-.008.015-.008.023-.031.078-.055.156-.086.242-.132.382-.25.718-.515 1.498.437.203.788.725 1.124 1.326a2.351 2.351 0 0 0-.78-1.646c2.16.094 4.025-.452 4.985-2.028.086-.14.164-.289.234-.445-.437.554-.983.788-1.997.733h-.008.008c1.505-.67 2.254-1.318 2.925-2.387.156-.257.312-.53.468-.835-1.318 1.35-2.84 1.732-4.439 1.444l-1.201.132a5.55 5.55 0 0 0-.117.289Z"/><defs><linearGradient id="a" x1="29.086" x2="37.36" y1="7.421" y2="4.667" gradientUnits="userSpaceOnUse"><stop stop-color="#F69923"/><stop offset=".312" stop-color="#F79A23"/><stop offset=".838" stop-color="#E97826"/></linearGradient><linearGradient id="b" x1="10.763" x2="39.025" y1="44.994" y2="22.639" gradientUnits="userSpaceOnUse"><stop offset=".323" stop-color="#9E2064"/><stop offset=".63" stop-color="#C92037"/><stop offset=".751" stop-color="#CD2335"/><stop offset="1" stop-color="#E97826"/></linearGradient><linearGradient id="c" x1="11.382" x2="38.905" y1="42.774" y2="31.218" gradientUnits="userSpaceOnUse"><stop offset=".323" stop-color="#9E2064"/><stop offset=".63" stop-color="#C92037"/><stop offset=".751" stop-color="#CD2335"/><stop offset="1" stop-color="#E97826"/></linearGradient><linearGradient id="d" x1="13.12" x2="25.362" y1="40.34" y2="37.944" gradientUnits="userSpaceOnUse"><stop stop-color="#282662"/><stop offset=".095" stop-color="#662E8D"/><stop offset=".788" stop-color="#9F2064"/><stop offset=".949" stop-color="#CD2032"/></linearGradient><linearGradient id="e" x1="13.917" x2="29.332" y1="46.726" y2="9.51" gradientUnits="userSpaceOnUse"><stop offset=".323" stop-color="#9E2064"/><stop offset=".63" stop-color="#C92037"/><stop offset=".751" stop-color="#CD2335"/><stop offset="1" stop-color="#E97826"/></linearGradient><linearGradient id="f" x1="15.155" x2="39.607" y1="44.585" y2="13.89" gradientUnits="userSpaceOnUse"><stop offset=".323" stop-color="#9E2064"/><stop offset=".63" stop-color="#C92037"/><stop offset=".751" stop-color="#CD2335"/><stop offset="1" stop-color="#E97826"/></linearGradient><linearGradient id="g" x1="16.488" x2="25.792" y1="42.284" y2="20.156" gradientUnits="userSpaceOnUse"><stop stop-color="#282662"/><stop offset=".095" stop-color="#662E8D"/><stop offset=".788" stop-color="#9F2064"/><stop offset=".949" stop-color="#CD2032"/></linearGradient></defs></svg>
